src/assets/img/draftsVerde.svg

<?xml version="1.0" encoding="utf-8"?>
<!-- Generator: Adobe Illustrator 25.4.1, SVG Export Plug-In . SVG Version: 6.00 Build 0)  -->
<svg version="1.1" id="Layer_1" xmlns="http://www.w3.org/2000/svg" xmlns:xlink="http://www.w3.org/1999/xlink" x="0px" y="0px"
	 viewBox="0 0 48 48" style="enable-background:new 0 0 48 48;" xml:space="preserve">
<style type="text/css">
	.st0{fill:#073B3A;}
</style>
<path class="st0" d="M24,2l18.5,11.1c0.6,0.3,1,0.7,1.2,1.2s0.3,1,0.3,1.5V39c0,0.8-0.3,1.5-0.9,2.1C42.5,41.7,41.8,42,41,42H7
	c-0.8,0-1.5-0.3-2.1-0.9C4.3,40.5,4,39.8,4,39V15.9c0-0.5,0.1-1,0.3-1.5c0.2-0.5,0.6-0.9,1.1-1.2L24,2z M24,25.3l16.8-9.9L24,5.3
	L7.2,15.4L24,25.3z"/>
</svg>

<?xml version="1.0" standalone="no"?>
<!DOCTYPE svg PUBLIC "-//W3C//DTD SVG 1.0//EN" "http://www.w3.org/TR/2001/REC-SVG-20010904/DTD/svg10.dtd">
<svg xmlns="http://www.w3.org/2000/svg" xmlns:xlink="http://www.w3.org/1999/xlink" id="body_1" width="50" height="38">

<g transform="matrix(0.7916667 0 0 0.7916667 6 -0)">
    <path d="M24 2L42.5 13.1C 43.1 13.400001 43.5 13.8 43.7 14.3C 43.9 14.8 44 15.3 44 15.8L44 15.8L44 39C 44 39.8 43.7 40.5 43.1 41.1C 42.5 41.7 41.8 42 41 42L41 42L7 42C 6.2 42 5.5 41.7 4.9 41.1C 4.3 40.5 4 39.8 4 39L4 39L4 15.9C 4 15.4 4.1 14.9 4.3 14.4C 4.5 13.9 4.9 13.5 5.4 13.2L5.4 13.2L24 2zM24 25.3L40.8 15.4L24 5.3L7.2 15.4L24 25.3z" stroke="none" fill="#073B3A" fill-rule="nonzero" />
</g>
</svg>
